X:162
T:New york street - Masters
%%VWML:SBG-1-2-465-0
F:http://www.vwml.org/record/SBG/1/2/465
Z:Original Sibelius transcriptions by M. & S. Graebe
M:3/8
I:linebreak $
K:C
V:1 treble nm="P1"
V:1
 D | GGG | ABc | ded | B2 G | ded | BGD | FGE |$ D2 E/F/ | GGG | GAB | ccc | B2 G | ded | BGA | %15
 GEF |$ G2 A/B/ | cde | dBG | FGE | D2 B | cde | dBG | AEF | G2 x | %25




